!!!OTL: Die Mordeltern Es war'n einmal zwei Bauernsoehn,
!!!ARE: Europa, Mitteleuropa, Deutschland (BRD), Nordbayern, Unterfranken
!!!YOR: 4, S. 310
!!    ????
!!!SCT: Q0085U
!!!YEM: Copyright 1995, estate of Helmut Schaffrath.
**kern
*ICvox
*Ivox
*M9/8
*k[f#]
*G:
{8d
=1
4d
8g
8.g
16b
[8a
4a]
8g
=2
4f#
8g
[4.a
4a]}
{8a
=3
4a
8a
[4.b
4b]
8a
=4
4g
8a
[4.b
4b]}
{8g
=5
4g
8g
[4.cc
4cc]
8b
=6
4a
8g
[4.g
4g]}
{8g
=7
4g
8g
[4.cc
4cc]
8b
=8
4a
8g
[4.g
4g]}
==
!!!AGN: Ballade, Habgier, Mord, Reue, Selbstmord
!!!ONB: ESAC (Essen Associative Code) Database: BALLADE
!!!AMT: compound triple
!!!AIN: vox
!!!EED: Helmut Schaffrath
!!!EEV: 1.0
*-
